swiss/communes/0863.svg

<?xml version="1.0" encoding="UTF-8" standalone="no"?>
<svg
   xmlns:dc="http://purl.org/dc/elements/1.1/"
   xmlns:cc="http://creativecommons.org/ns#"
   xmlns:rdf="http://www.w3.org/1999/02/22-rdf-syntax-ns#"
   xmlns:svg="http://www.w3.org/2000/svg"
   xmlns="http://www.w3.org/2000/svg"
   xmlns:xlink="http://www.w3.org/1999/xlink"
   xmlns:sodipodi="http://sodipodi.sourceforge.net/DTD/sodipodi-0.dtd"
   xmlns:inkscape="http://www.inkscape.org/namespaces/inkscape"
   height="763"
   width="603"
   version="1.0"
   id="svg20"
   sodipodi:version="0.32"
   inkscape:version="0.46"
   sodipodi:docname="Burgistein-coat of arms.svg"
   sodipodi:docbase="C:\Users\Camilo\Documents\Escudos de Suiza"
   inkscape:output_extension="org.inkscape.output.svg.inkscape">
  <metadata
     id="metadata31">
    <rdf:RDF>
      <cc:Work
         rdf:about="">
        <dc:format>image/svg+xml</dc:format>
        <dc:type
           rdf:resource="http://purl.org/dc/dcmitype/StillImage" />
        <dc:date>05-AUG-2009</dc:date>
        <dc:creator>
          <cc:Agent>
            <dc:title>Juan G (aliman5040)</dc:title>
          </cc:Agent>
        </dc:creator>
        <cc:license
           rdf:resource="" />
        <dc:coverage />
        <dc:description />
        <dc:subject>
          <rdf:Bag />
        </dc:subject>
        <dc:language />
        <dc:title>Wappen Gemeinde Burgistein</dc:title>
      </cc:Work>
    </rdf:RDF>
  </metadata>
  <defs
     id="defs29">
    <inkscape:perspective
       sodipodi:type="inkscape:persp3d"
       inkscape:vp_x="0 : 381.5 : 1"
       inkscape:vp_y="0 : 1000 : 0"
       inkscape:vp_z="603 : 381.5 : 1"
       inkscape:persp3d-origin="301.5 : 254.33333 : 1"
       id="perspective5149" />
    <linearGradient
       id="linearGradient2893">
      <stop
         style="stop-color:#ffffff;stop-opacity:0.3137255;"
         offset="0"
         id="stop2895" />
      <stop
         id="stop2897"
         offset="0.19"
         style="stop-color:#ffffff;stop-opacity:0.25098041;" />
      <stop
         style="stop-color:#6b6b6b;stop-opacity:0.1254902;"
         offset="0.60000002"
         id="stop2901" />
      <stop
         style="stop-color:#000000;stop-opacity:0.1254902;"
         offset="1"
         id="stop2899" />
    </linearGradient>
    <radialGradient
       inkscape:collect="always"
       xlink:href="#linearGradient2893"
       id="radialGradient3236"
       gradientUnits="userSpaceOnUse"
       gradientTransform="matrix(1.215027,1.531577e-24,1.464684e-23,1.266667,-839.1924,-490.4894)"
       cx="858.04236"
       cy="579.93323"
       fx="858.04236"
       fy="579.93323"
       r="300" />
    <inkscape:perspective
       id="perspective5197"
       inkscape:persp3d-origin="372.04724 : 350.78739 : 1"
       inkscape:vp_z="744.09448 : 526.18109 : 1"
       inkscape:vp_y="0 : 1000 : 0"
       inkscape:vp_x="0 : 526.18109 : 1"
       sodipodi:type="inkscape:persp3d" />
    <inkscape:perspective
       id="perspective8046"
       inkscape:persp3d-origin="372.04724 : 350.78739 : 1"
       inkscape:vp_z="744.09448 : 526.18109 : 1"
       inkscape:vp_y="0 : 1000 : 0"
       inkscape:vp_x="0 : 526.18109 : 1"
       sodipodi:type="inkscape:persp3d" />
    <inkscape:perspective
       id="perspective9383"
       inkscape:persp3d-origin="372.04724 : 350.78739 : 1"
       inkscape:vp_z="744.09448 : 526.18109 : 1"
       inkscape:vp_y="0 : 1000 : 0"
       inkscape:vp_x="0 : 526.18109 : 1"
       sodipodi:type="inkscape:persp3d" />
    <inkscape:perspective
       id="perspective9513"
       inkscape:persp3d-origin="372.04724 : 350.78739 : 1"
       inkscape:vp_z="744.09448 : 526.18109 : 1"
       inkscape:vp_y="0 : 1000 : 0"
       inkscape:vp_x="0 : 526.18109 : 1"
       sodipodi:type="inkscape:persp3d" />
    <inkscape:perspective
       id="perspective9597"
       inkscape:persp3d-origin="372.04724 : 350.78739 : 1"
       inkscape:vp_z="744.09448 : 526.18109 : 1"
       inkscape:vp_y="0 : 1000 : 0"
       inkscape:vp_x="0 : 526.18109 : 1"
       sodipodi:type="inkscape:persp3d" />
    <inkscape:perspective
       id="perspective9760"
       inkscape:persp3d-origin="372.04724 : 350.78739 : 1"
       inkscape:vp_z="744.09448 : 526.18109 : 1"
       inkscape:vp_y="0 : 1000 : 0"
       inkscape:vp_x="0 : 526.18109 : 1"
       sodipodi:type="inkscape:persp3d" />
    <inkscape:perspective
       id="perspective9857"
       inkscape:persp3d-origin="372.04724 : 350.78739 : 1"
       inkscape:vp_z="744.09448 : 526.18109 : 1"
       inkscape:vp_y="0 : 1000 : 0"
       inkscape:vp_x="0 : 526.18109 : 1"
       sodipodi:type="inkscape:persp3d" />
    <inkscape:perspective
       id="perspective5219"
       inkscape:persp3d-origin="372.04724 : 350.78739 : 1"
       inkscape:vp_z="744.09448 : 526.18109 : 1"
       inkscape:vp_y="0 : 1000 : 0"
       inkscape:vp_x="0 : 526.18109 : 1"
       sodipodi:type="inkscape:persp3d" />
    <inkscape:perspective
       id="perspective5188"
       inkscape:persp3d-origin="372.04724 : 350.78739 : 1"
       inkscape:vp_z="744.09448 : 526.18109 : 1"
       inkscape:vp_y="0 : 1000 : 0"
       inkscape:vp_x="0 : 526.18109 : 1"
       sodipodi:type="inkscape:persp3d" />
    <inkscape:perspective
       id="perspective6860"
       inkscape:persp3d-origin="372.04724 : 350.78739 : 1"
       inkscape:vp_z="744.09448 : 526.18109 : 1"
       inkscape:vp_y="0 : 1000 : 0"
       inkscape:vp_x="0 : 526.18109 : 1"
       sodipodi:type="inkscape:persp3d" />
    <inkscape:perspective
       id="perspective8627"
       inkscape:persp3d-origin="372.04724 : 350.78739 : 1"
       inkscape:vp_z="744.09448 : 526.18109 : 1"
       inkscape:vp_y="0 : 1000 : 0"
       inkscape:vp_x="0 : 526.18109 : 1"
       sodipodi:type="inkscape:persp3d" />
    <inkscape:perspective
       id="perspective27150"
       inkscape:persp3d-origin="372.04724 : 350.78739 : 1"
       inkscape:vp_z="744.09448 : 526.18109 : 1"
       inkscape:vp_y="0 : 1000 : 0"
       inkscape:vp_x="0 : 526.18109 : 1"
       sodipodi:type="inkscape:persp3d" />
    <inkscape:perspective
       id="perspective28351"
       inkscape:persp3d-origin="372.04724 : 350.78739 : 1"
       inkscape:vp_z="744.09448 : 526.18109 : 1"
       inkscape:vp_y="0 : 1000 : 0"
       inkscape:vp_x="0 : 526.18109 : 1"
       sodipodi:type="inkscape:persp3d" />
    <inkscape:perspective
       id="perspective3273"
       inkscape:persp3d-origin="372.04724 : 350.78739 : 1"
       inkscape:vp_z="744.09448 : 526.18109 : 1"
       inkscape:vp_y="0 : 1000 : 0"
       inkscape:vp_x="0 : 526.18109 : 1"
       sodipodi:type="inkscape:persp3d" />
    <inkscape:perspective
       id="perspective3393"
       inkscape:persp3d-origin="372.04724 : 350.78739 : 1"
       inkscape:vp_z="744.09448 : 526.18109 : 1"
       inkscape:vp_y="0 : 1000 : 0"
       inkscape:vp_x="0 : 526.18109 : 1"
       sodipodi:type="inkscape:persp3d" />
    <inkscape:perspective
       id="perspective6925"
       inkscape:persp3d-origin="372.04724 : 350.78739 : 1"
       inkscape:vp_z="744.09448 : 526.18109 : 1"
       inkscape:vp_y="0 : 1000 : 0"
       inkscape:vp_x="0 : 526.18109 : 1"
       sodipodi:type="inkscape:persp3d" />
    <inkscape:perspective
       id="perspective9350"
       inkscape:persp3d-origin="372.04724 : 350.78739 : 1"
       inkscape:vp_z="744.09448 : 526.18109 : 1"
       inkscape:vp_y="0 : 1000 : 0"
       inkscape:vp_x="0 : 526.18109 : 1"
       sodipodi:type="inkscape:persp3d" />
  </defs>
  <sodipodi:namedview
     inkscape:window-height="720"
     inkscape:window-width="1280"
     inkscape:pageshadow="2"
     inkscape:pageopacity="0.0"
     guidetolerance="10.0"
     gridtolerance="10.0"
     objecttolerance="10.0"
     borderopacity="1.0"
     bordercolor="#666666"
     pagecolor="#ffffff"
     id="base"
     inkscape:zoom="2.3155441"
     inkscape:cx="240.89627"
     inkscape:cy="656.57199"
     inkscape:window-x="-8"
     inkscape:window-y="-8"
     inkscape:current-layer="layer2"
     showgrid="true"
     showguides="true"
     inkscape:guide-bbox="true">
    <inkscape:grid
       type="xygrid"
       id="grid5151" />
  </sodipodi:namedview>
  <g
     inkscape:groupmode="layer"
     id="layer1"
     inkscape:label="Fond écu"
     style="display:inline"
     sodipodi:insensitive="true">
    <path
       id="path1899"
       d="M 1.5,1.49998 L 1.5,460.3679 C 1.5,626.6785 135.81456,761.5 301.49999,761.5 C 467.18543,761.5 601.5,626.6785 601.5,460.3679 L 601.5,1.49998 L 1.5,1.49998 z"
       style="fill:#000000;fill-opacity:1;stroke:#000000;stroke-opacity:1" />
  </g>
  <g
     inkscape:groupmode="layer"
     id="layer2"
     inkscape:label="Meubles"
     style="display:inline"
     sodipodi:insensitive="true">
    <path
       d=""
       style="fill:none;fill-opacity:1;fill-rule:evenodd;stroke:#000000;stroke-width:4.27536249;stroke-miterlimit:4;stroke-dasharray:none;stroke-opacity:1"
       id="path5257"
       sodipodi:nodetypes="cc" />
    <path
       style="fill:#ffffff;fill-opacity:1;fill-rule:evenodd;stroke:#000000;stroke-width:3.97767472;stroke-miterlimit:4;stroke-dasharray:none;stroke-opacity:1"
       d="M 601.5,2 L 80.8125,663.78125 C 31.87804,610.19685 2,538.7954 2,460.375 L 2.875,2 L 601.5,2 z"
       id="path6937"
       sodipodi:nodetypes="ccccc" />
    <g
       id="g10349"
       transform="matrix(4.0838279,0,0,4.0838279,-2538.1528,-2331.1766)">
      <path
         sodipodi:nodetypes="ccsc"
         id="path9360"
         d="M 647,597 C 638.60989,592.12766 628.16383,597.30181 631,587 C 627,587 624.68905,593.6703 631,595 C 636.17513,596.09039 641.77849,595.21511 647,597 z"
         style="opacity:1;fill:#e20909;fill-opacity:1;fill-rule:evenodd;stroke:#000000;stroke-width:1;stroke-miterlimit:4;stroke-dasharray:none;stroke-opacity:1" />
      <path
         sodipodi:nodetypes="cccc"
         id="path9370"
         d="M 674,587 C 674,583 670,579 667,576 C 665.10994,579.33333 664.24655,582.66667 665,586 C 669.50267,589.30165 672.88653,593.26784 674,587 z"
         style="opacity:1;fill:#e20909;fill-opacity:1;fill-rule:evenodd;stroke:#000000;stroke-width:1;stroke-miterlimit:4;stroke-dasharray:none;stroke-opacity:1" />
      <path
         style="opacity:1;fill:#e20909;fill-opacity:1;fill-rule:evenodd;stroke:#000000;stroke-width:1;stroke-miterlimit:4;stroke-dasharray:none;stroke-opacity:1"
         d="M 740,603 C 746,596 744,590 738,588 C 741,586 741.9987,583.27468 741,579 C 737.85048,585.76092 729.72807,587.52121 722.00985,588 C 723.55337,585.34778 723.87249,582.99704 723.20649,580.88888 C 718.05846,586.28043 712.71059,590.50574 704.64098,585.92096 C 706.38924,583.31036 706.20802,581.13913 704.92506,579.21877 C 700.04283,585.02862 694.62998,585.68906 686,585 C 680.28156,576.46322 670.95892,588.6832 680.28156,588.70664 C 682.80165,590.27549 687.62761,593.60401 699.87102,591.15532 C 707.21707,594.82835 713.33878,596.05269 717.35234,592.27874 C 725.18664,597.53457 739.84498,585.53644 740,603 z"
         id="path9368"
         sodipodi:nodetypes="cccccccccccc" />
      <path
         sodipodi:nodetypes="cccccccccccc"
         id="path9366"
         d="M 719,625 C 728.05766,622.9173 727.95339,618.08602 727,613 C 733.75333,611.84622 734.16331,607.30932 735,603 C 729.36109,607.88182 722.23916,605.71932 715,603 C 717.49315,601.21088 718.74566,599.19618 719,597 C 712.0973,599.81492 705.48915,601.48385 700,594 C 702.66296,592.33259 703.38548,590.2771 703,588 C 696.1688,591.30534 687.59362,592.15791 680,588 C 676,580 667,590 677,592 C 682.16461,594.73723 687.32921,598.5109 692.49382,598 C 697.51512,605.50153 703.17065,606.18501 709,605 C 714,613 726,609 719,625 z"
         style="opacity:1;fill:#e20909;fill-opacity:1;fill-rule:evenodd;stroke:#000000;stroke-width:1;stroke-miterlimit:4;stroke-dasharray:none;stroke-opacity:1" />
      <path
         sodipodi:nodetypes="cssccccccccccsscc"
         id="path9358"
         d="M 663,628 C 657,623 648.9804,620.11504 645,614 C 641.15049,608.08604 632,611.22766 632,616 C 632,639 625,643 630,647 C 635,650 638,641 642,644 C 638,641 635,650 630,647 L 627.23802,658 L 633,656 L 634,647 L 633,656 L 632.49623,660 C 643,654 643,654.56216 642,644 L 645,645.58373 C 648.62893,640.13783 639.58615,639.4864 640,628 C 640.27769,620.29282 641.88595,622.33388 644,628 C 646.43995,634.53961 651.06599,640.52806 656,646 C 659.51074,640.81907 662.74552,635.44616 663,628 z"
         style="opacity:1;fill:#e20909;fill-opacity:1;fill-rule:evenodd;stroke:#000000;stroke-width:1;stroke-miterlimit:4;stroke-dasharray:none;stroke-opacity:1" />
      <path
         sodipodi:nodetypes="csccccccsccsccccccccccccccccccccccccsscccccccccccsscccccc"
         id="path9356"
         d="M 720.68483,632.78293 C 712.68483,631.78293 695.31682,636.95741 696,623 C 696.2931,617.0119 691.94425,611 687,605 C 679,606 675,604 671,600 C 675,604 679,606 687,605 L 692,604 C 686,600 681,596 674,595 C 681,596 686,600 692,604 C 685.95398,598.5616 681,589 673,592 C 672.0404,592.35985 671.07324,592.33641 670,593 L 673,592 C 676,591 667.54396,586.41759 664,585 C 659,583 659.29122,583.03885 656,586 C 649,583 640.18463,579.41445 640,586 C 636.7525,585.84549 635.85477,587.90253 635,590 C 640.43991,590.5643 646.41951,590.46555 647,597 C 643.10118,599.86289 639.03588,598.56355 635,598 C 636,604 646,608 649,602 C 656.74661,602.69656 659,613 666,613 C 671,613 672,611 675,609 C 672,611 671,613 666,613 C 666.33991,616.66338 666.65002,620.34166 665,625 L 670,620 L 665,625 C 662.362,629.80382 651.06624,638.80125 660,638 L 668,630 L 660,638 C 653.25142,647.25928 650.41546,656.07257 658,651 L 664,642 L 658,651 C 655.77871,655.34076 653.6664,660.82023 660,659 L 665,650 L 660,659 C 660,659 661,661 661,661 L 670,658 L 661,661 C 655.33462,662.82882 651,664 645,663 C 640.07493,662.17916 631,667 633,674 C 638.30575,692.57011 629.22023,701.47518 640,703 C 644.28617,701.32357 645.5516,697.8983 646,694 C 645.3777,696.2997 645.12669,701.19276 640,703 L 648,712 L 649,706 L 644,700 L 649,706 L 652.1217,709.91645 C 657.1217,696.91645 658,697 646,694 L 648,694.46017 L 653,691 C 639.07977,690.70595 643.14532,683.24428 642,678 C 640.49657,671.11601 647.01838,673.66871 650,674 C 659,675 671.20174,679.74683 676,671 L 677,669 L 680,663 L 677,669 C 683,670 689.28179,663.18182 695.95313,663.88121 L 720.68483,632.78293 z"
         style="opacity:1;fill:#e20909;fill-opacity:1;fill-rule:evenodd;stroke:#000000;stroke-width:1;stroke-miterlimit:4;stroke-dasharray:none;stroke-opacity:1" />
      <path
         sodipodi:nodetypes="ccccc"
         id="path9362"
         d="M 656,588 L 657.48716,588.64911 C 654.55039,594.54601 662.53605,596.47323 664,591.51415 L 667.40619,592 C 663.60412,591.33763 659.80206,589.72613 656,588 z"
         style="opacity:1;fill:#000000;fill-opacity:1;fill-rule:evenodd;stroke:#000000;stroke-width:1;stroke-miterlimit:4;stroke-dasharray:none;stroke-opacity:1" />
      <path
         d="M 659,591.5 A 0.5,0.5 0 1 1 658,591.5 A 0.5,0.5 0 1 1 659,591.5 z"
         sodipodi:ry="0.5"
         sodipodi:rx="0.5"
         sodipodi:cy="591.5"
         sodipodi:cx="658.5"
         id="path9364"
         style="opacity:1;fill:#ffffff;fill-opacity:1;fill-rule:evenodd;stroke:#ffffff;stroke-width:1;stroke-miterlimit:4;stroke-dasharray:none;stroke-opacity:1"
         sodipodi:type="arc" />
    </g>
  </g>
  <g
     inkscape:groupmode="layer"
     id="layer3"
     inkscape:label="Reflet final"
     style="display:inline"
     sodipodi:insensitive="true">
    <path
       style="fill:url(#radialGradient3236);fill-opacity:1"
       d="M 1.5,1.5 L 1.5,460.3679 C 1.5,626.67854 135.81454,761.5 301.49993,761.5 C 467.1854,761.5 601.5,626.67854 601.5,460.3679 L 601.5,1.5 L 1.5,1.5 z "
       id="path2346" />
  </g>
  <g
     inkscape:groupmode="layer"
     id="layer4"
     inkscape:label="Contour final"
     style="display:inline"
     sodipodi:insensitive="true">
    <path
       style="fill:none;fill-opacity:1;stroke:#000000;stroke-width:3;stroke-miterlimit:4;stroke-dasharray:none;stroke-opacity:1"
       d="M 1.5,1.5 L 1.5,460.36794 C 1.5,626.67854 135.81454,761.5 301.49993,761.5 C 467.1854,761.5 601.5,626.67854 601.5,460.36794 L 601.5,1.5 L 1.5,1.5 z"
       id="path3239" />
  </g>
</svg>

<svg xmlns="http://www.w3.org/2000/svg" xmlns:xlink="http://www.w3.org/1999/xlink" height="763" width="603" version="1.0"><defs><radialGradient xlink:href="#a" id="b" gradientUnits="userSpaceOnUse" gradientTransform="matrix(1.21503 0 0 1.26667 -839.192 -490.49)" cx="858.042" cy="579.933" fx="858.042" fy="579.933" r="300"/><linearGradient id="a"><stop style="stop-color:#fff;stop-opacity:.3137255" offset="0"/><stop offset=".19" style="stop-color:#fff;stop-opacity:.25098041"/><stop style="stop-color:#6b6b6b;stop-opacity:.1254902" offset=".6"/><stop style="stop-color:#000;stop-opacity:.1254902" offset="1"/></linearGradient></defs><g style="display:inline"><path d="M1.5 1.5v458.868c0 166.31 134.315 301.132 300 301.132s300-134.822 300-301.132V1.5H1.5z" style="fill:#000;fill-opacity:1;stroke:#000;stroke-opacity:1"/></g><g style="display:inline"><path style="fill:#fff;fill-opacity:1;fill-rule:evenodd;stroke:#000;stroke-width:3.97767472;stroke-miterlimit:4;stroke-dasharray:none;stroke-opacity:1" d="M601.5 2 80.812 663.781C31.879 610.197 2 538.795 2 460.375L2.875 2H601.5z"/><path d="M647 597c-8.39-4.872-18.836.302-16-10-4 0-6.311 6.67 0 8 5.175 1.09 10.778.215 16 2zM674 587c0-4-4-8-7-11-1.89 3.333-2.753 6.667-2 10 4.503 3.302 7.887 7.268 9 1zM740 603c6-7 4-13-2-15 3-2 3.999-4.725 3-9-3.15 6.76-11.272 8.521-18.99 9 1.543-2.652 1.862-5.003 1.196-7.111-5.148 5.391-10.495 9.617-18.565 5.032 1.748-2.61 1.567-4.782.284-6.702-4.882 5.81-10.295 6.47-18.925 5.781-5.718-8.537-15.041 3.683-5.718 3.707 2.52 1.568 7.346 4.897 19.589 2.448 7.346 3.673 13.468 4.898 17.481 1.124 7.835 5.256 22.493-6.743 22.648 10.721z" style="opacity:1;fill:#e20909;fill-opacity:1;fill-rule:evenodd;stroke:#000;stroke-width:1;stroke-miterlimit:4;stroke-dasharray:none;stroke-opacity:1" transform="matrix(4.08383 0 0 4.08383 -2538.153 -2331.177)"/><path d="M719 625c9.058-2.083 8.953-6.914 8-12 6.753-1.154 7.163-5.69 8-10-5.639 4.882-12.76 2.72-20 0 2.493-1.79 3.746-3.804 4-6-6.903 2.815-13.51 4.484-19-3 2.663-1.667 3.385-3.723 3-6-6.831 3.305-15.406 4.158-23 0-4-8-13 2-3 4 5.165 2.737 10.33 6.51 15.494 6 5.021 7.502 10.677 8.185 16.506 7 5 8 17 4 10 20zM663 628c-6-5-14.02-7.885-18-14-3.85-5.914-13-2.772-13 2 0 23-7 27-2 31 5 3 8-6 12-3-4-3-7 6-12 3l-2.762 11 5.762-2 1-9-1 9-.504 4C643 654 643 654.562 642 644l3 1.584c3.629-5.446-5.414-6.098-5-17.584.278-7.707 1.886-5.666 4 0 2.44 6.54 7.066 12.528 12 18 3.51-5.18 6.746-10.554 7-18z" style="opacity:1;fill:#e20909;fill-opacity:1;fill-rule:evenodd;stroke:#000;stroke-width:1;stroke-miterlimit:4;stroke-dasharray:none;stroke-opacity:1" transform="matrix(4.08383 0 0 4.08383 -2538.153 -2331.177)"/><path d="M720.685 632.783c-8-1-25.368 4.174-24.685-9.783.293-5.988-4.056-12-9-18-8 1-12-1-16-5 4 4 8 6 16 5l5-1c-6-4-11-8-18-9 7 1 12 5 18 9-6.046-5.438-11-15-19-12-.96.36-1.927.336-3 1l3-1c3-1-5.456-5.582-9-7-5-2-4.709-1.961-8 1-7-3-15.815-6.586-16 0-3.247-.155-4.145 1.903-5 4 5.44.564 11.42.466 12 7-3.899 2.863-7.964 1.564-12 1 1 6 11 10 14 4 7.747.697 10 11 17 11 5 0 6-2 9-4-3 2-4 4-9 4 .34 3.663.65 7.342-1 12l5-5-5 5c-2.638 4.804-13.934 13.801-5 13l8-8-8 8c-6.749 9.26-9.585 18.073-2 13l6-9-6 9c-2.221 4.34-4.334 9.82 2 8l5-9-5 9 1 2 9-3-9 3c-5.665 1.829-10 3-16 2-4.925-.82-14 4-12 11 5.306 18.57-3.78 27.475 7 29 4.286-1.676 5.552-5.102 6-9-.622 2.3-.873 7.193-6 9l8 9 1-6-5-6 5 6 3.122 3.916c5-13 5.878-12.916-6.122-15.916l2 .46 5-3.46c-13.92-.294-9.855-7.756-11-13-1.503-6.884 5.018-4.331 8-4 9 1 21.202 5.747 26-3l1-2 3-6-3 6c6 1 12.282-5.818 18.953-5.119l24.732-31.098z" style="opacity:1;fill:#e20909;fill-opacity:1;fill-rule:evenodd;stroke:#000;stroke-width:1;stroke-miterlimit:4;stroke-dasharray:none;stroke-opacity:1" transform="matrix(4.08383 0 0 4.08383 -2538.153 -2331.177)"/><path d="m656 588 1.487.65c-2.937 5.896 5.05 7.823 6.513 2.864l3.406.486c-3.802-.662-7.604-2.274-11.406-4z" style="opacity:1;fill:#000;fill-opacity:1;fill-rule:evenodd;stroke:#000;stroke-width:1;stroke-miterlimit:4;stroke-dasharray:none;stroke-opacity:1" transform="matrix(4.08383 0 0 4.08383 -2538.153 -2331.177)"/><path d="M659 591.5a.5.5 0 1 1-1 0 .5.5 0 1 1 1 0z" style="opacity:1;fill:#fff;fill-opacity:1;fill-rule:evenodd;stroke:#fff;stroke-width:1;stroke-miterlimit:4;stroke-dasharray:none;stroke-opacity:1" transform="matrix(4.08383 0 0 4.08383 -2538.153 -2331.177)"/></g><g style="display:inline"><path style="fill:url(#b);fill-opacity:1" d="M1.5 1.5v458.868c0 166.31 134.315 301.132 300 301.132s300-134.821 300-301.132V1.5H1.5z"/></g><g style="display:inline"><path style="fill:none;fill-opacity:1;stroke:#000;stroke-width:3;stroke-miterlimit:4;stroke-dasharray:none;stroke-opacity:1" d="M1.5 1.5v458.868c0 166.31 134.315 301.132 300 301.132s300-134.821 300-301.132V1.5H1.5z"/></g></svg>
